X:545
T: HOP HOP ZEHREN
N: E1825
O: Europa, Mitteleuropa, Deutschland, Niederrhein, Meurs
R: Kinder -, Schaukel -, Reiter - Lied
M: 2/4
L: 1/8
K: G
 | G2A2 | B2Gz |
G2AA | B2Gz |
B2AG | BBB2 |
AAAG | BBB2 |
A2A2 | G2z2

@@@ Tune index: 5229
